assets/threeGiftsIcon.svg

<svg width="119" height="88" viewBox="0 0 119 88" fill="none" xmlns="http://www.w3.org/2000/svg">
<path d="M54.0938 26.7969L85.5 42.5L116.906 26.7969V60.2969L85.5 75.9997L54.0938 60.2966V26.7969Z" fill="#DB5449"/>
<path d="M54.0938 29.9375V39.7257L85.3952 55.0624L116.906 39.6734V29.9375L85.5 45.3267L54.0938 29.9375Z" fill="#C54B42"/>
<path d="M85.5 75.9997V42.5L56.1875 27.8438H54.0938V60.2969L85.5 75.9997Z" fill="#D05045"/>
<path d="M54.0938 29.9375V39.7257L85.3952 55.0624L85.5 55.0101V45.2742V45.3266L54.0938 29.9375Z" fill="#BB483E"/>
<path d="M52 25.7006L85.5 9.00293L119 25.7006V27.8991L85.5 44.5965L52 27.9513V25.7006Z" fill="#EB6258"/>
<path d="M104.711 14.2868C103.612 12.2977 101.256 11.0938 98.4822 11.0938C92.1487 11.0938 87.6995 17.0086 85.501 20.7774C83.3025 17.0086 78.801 11.1461 72.5198 11.1461C68.4893 11.1461 65.6104 13.6063 65.6104 16.9563C65.6104 22.9234 72.1533 26.7969 85.2915 26.7969C98.4297 26.7969 105.392 21.8243 105.392 17.0086C105.392 16.0665 105.182 15.1243 104.711 14.2868ZM73.8808 20.7252C72.4152 19.7306 71.8918 18.6314 71.8918 17.8986C71.8918 17.0088 72.7293 16.3283 73.9332 16.3283C76.7598 16.3283 79.0105 20.0447 80.2667 22.6096C76.9691 22.3478 75.0323 21.4579 73.8808 20.7252ZM97.1213 20.7252C95.9697 21.458 94.033 22.3478 90.7354 22.6095C91.9393 20.0447 94.1901 16.3282 97.0689 16.3282C98.2728 16.3282 99.1103 17.0086 99.1103 17.8984C99.1105 18.6314 98.587 19.7305 97.1213 20.7252Z" fill="#EFEFEF"/>
<path d="M52 25.75L85.5 42.1336L119 25.75V36.5851L85.3953 52.9687L52 36.5851V25.75Z" fill="#E2574C"/>
<path d="M98.0643 37.4222V36.2183L85.5018 29.4137L72.9394 36.2183V37.4222L64.5645 33.7582V32.0832L85.0831 21.248L85.5018 21.4574L85.9206 21.248L106.439 32.0308V33.7058L98.0643 37.4222Z" fill="#EFEFEF"/>
<path d="M98.0601 36.2188V69.6664L106.435 65.4789V32.0312L98.0601 36.2188Z" fill="#DCDCDC"/>
<path d="M64.561 65.5311L72.936 69.7187V36.2711L64.561 32.0313C64.561 32.0311 64.561 65.5311 64.561 65.5311Z" fill="#D1D1D1"/>
<path d="M1.5 12.75L24 24L46.5 12.75V36.75L24 47.9998L1.5 36.7498V12.75Z" fill="#DB5449"/>
<path d="M1.5 15V22.0125L23.9249 33L46.4999 21.9749V15L24 26.0251L1.5 15Z" fill="#C54B42"/>
<path d="M24 47.9998V24L3.00001 13.5H1.5V36.75L24 47.9998Z" fill="#D05045"/>
<path d="M1.5 15V22.0125L23.925 33L24 32.9624V25.9875V26.025L1.5 15Z" fill="#BB483E"/>
<path d="M0 11.9654L24 0.00292969L48 11.9654V13.5405L24 25.5028L0 13.5779V11.9654Z" fill="#EB6258"/>
<path d="M37.763 3.78753C36.9755 2.36255 35.288 1.5 33.3005 1.5C28.763 1.5 25.5755 5.73753 24.0005 8.43753C22.4255 5.73753 19.2005 1.53751 14.7005 1.53751C11.813 1.53751 9.75049 3.30003 9.75049 5.70001C9.75049 9.97496 14.438 12.75 23.8504 12.75C33.2629 12.75 38.2504 9.18754 38.2504 5.73753C38.2505 5.06255 38.1006 4.38758 37.763 3.78753ZM15.6756 8.40011C14.6256 7.68762 14.2506 6.9001 14.2506 6.37509C14.2506 5.73763 14.8507 5.25013 15.7131 5.25013C17.7381 5.25013 19.3506 7.91261 20.2506 9.75016C17.8881 9.56259 16.5005 8.92503 15.6756 8.40011ZM32.3255 8.40011C31.5005 8.92513 30.113 9.56259 27.7505 9.75007C28.613 7.91261 30.2255 5.25003 32.288 5.25003C33.1504 5.25003 33.7505 5.73753 33.7505 6.37499C33.7506 6.9001 33.3755 7.68753 32.3255 8.40011Z" fill="#EFEFEF"/>
<path d="M0 12L24 23.7375L48 12V19.7625L23.925 31.5L0 19.7625V12Z" fill="#E2574C"/>
<path d="M33.0014 20.3628V19.5004L24.0014 14.6254L15.0014 19.5004V20.3628L9.00146 17.7379V16.5379L23.7014 8.77539L24.0014 8.92535L24.3014 8.77539L39.0013 16.5003V17.7003L33.0014 20.3628Z" fill="#EFEFEF"/>
<path d="M32.998 19.5V43.4625L38.998 40.4625V16.5L32.998 19.5Z" fill="#DCDCDC"/>
<path d="M8.99902 40.4999L14.999 43.4999V19.5375L8.99902 16.5C8.99902 16.4999 8.99902 40.4999 8.99902 40.4999Z" fill="#D1D1D1"/>
<path d="M7.6875 48.3438L33 61L58.3125 48.3438V75.3437L33 87.9998L7.6875 75.3435V48.3438Z" fill="#DB5449"/>
<path d="M7.6875 50.875V58.764L32.9156 71.1249L58.3123 58.7218V50.875L33 63.2782L7.6875 50.875Z" fill="#C54B42"/>
<path d="M33 87.9998V61L9.37501 49.1875H7.6875V75.3438L33 87.9998Z" fill="#D05045"/>
<path d="M7.6875 50.875V58.764L32.9156 71.1249L33 71.0827V63.2359V63.2781L7.6875 50.875Z" fill="#BB483E"/>
<path d="M6 47.4607L33 34.0029L60 47.4607V49.2327L33 62.6902L6 49.2748V47.4607Z" fill="#EB6258"/>
<path d="M48.4833 38.261C47.5974 36.6579 45.6989 35.6875 43.463 35.6875C38.3584 35.6875 34.7724 40.4547 33.0005 43.4922C31.2286 40.4547 27.6005 35.7297 22.538 35.7297C19.2896 35.7297 16.9692 37.7125 16.9692 40.4125C16.9692 45.2218 22.2427 48.3437 32.8317 48.3437C43.4207 48.3437 49.0317 44.336 49.0317 40.4547C49.0318 39.6954 48.8631 38.936 48.4833 38.261ZM23.635 43.4501C22.4537 42.6486 22.0319 41.7626 22.0319 41.172C22.0319 40.4548 22.7069 39.9064 23.6772 39.9064C25.9553 39.9064 27.7694 42.9017 28.7818 44.9689C26.1241 44.7579 24.563 44.0407 23.635 43.4501ZM42.3661 43.4501C41.438 44.0408 39.8771 44.7579 37.2193 44.9688C38.1895 42.9017 40.0037 39.9063 42.3239 39.9063C43.2942 39.9063 43.9692 40.4547 43.9692 41.1719C43.9693 41.7626 43.5474 42.6485 42.3661 43.4501Z" fill="#EFEFEF"/>
<path d="M6 47.5L33 60.7047L60 47.5V56.2328L32.9156 69.4375L6 56.2328V47.5Z" fill="#E2574C"/>
<path d="M43.1264 56.9079V55.9377L33.0014 50.4533L22.8764 55.9377V56.9079L16.1265 53.9548V52.6049L32.6639 43.8721L33.0014 44.0408L33.3389 43.8721L49.8763 52.5626V53.9126L43.1264 56.9079Z" fill="#EFEFEF"/>
<path d="M43.123 55.9375V82.8953L49.873 79.5203V52.5625L43.123 55.9375Z" fill="#DCDCDC"/>
<path d="M16.1235 79.5624L22.8735 82.9374V55.9797L16.1235 52.5625C16.1235 52.5624 16.1235 79.5624 16.1235 79.5624Z" fill="#D1D1D1"/>
</svg>

<svg xmlns="http://www.w3.org/2000/svg" width="119" height="88" fill="none" xmlns:v="https://vecta.io/nano"><path d="M54.094 26.797L85.5 42.5l31.406-15.703v33.5L85.5 76 54.094 60.297v-33.5z" fill="#db5449"/><path d="M54.094 29.938v9.788l31.3 15.337 31.51-15.39v-9.736L85.5 45.327l-31.406-15.39z" fill="#c54b42"/><path d="M85.5 76V42.5L56.188 27.844h-2.094v32.453L85.5 76z" fill="#d05045"/><path d="M54.094 29.938v9.788l31.3 15.337L85.5 55v-9.684l-31.406-15.39z" fill="#bb483e"/><path d="M52 25.7L85.5 9.003 119 25.7V27.9L85.5 44.597 52 27.95V25.7z" fill="#eb6258"/><path d="M104.71 14.287c-1.1-1.99-3.455-3.193-6.23-3.193-6.334 0-10.783 5.915-12.98 9.684-2.2-3.77-6.7-9.63-12.98-9.63-4.03 0-6.91 2.46-6.91 5.8 0 5.967 6.543 9.84 19.68 9.84s20.1-4.973 20.1-9.788c0-.942-.2-1.884-.68-2.722zm-30.83 6.438c-1.466-.995-1.99-2.094-1.99-2.827 0-.9.837-1.57 2.04-1.57 2.827 0 5.077 3.716 6.334 6.28-3.298-.262-5.234-1.152-6.386-1.884zm23.24 0c-1.152.733-3.088 1.623-6.386 1.884 1.204-2.565 3.455-6.28 6.334-6.28 1.204 0 2.04.68 2.04 1.57 0 .733-.523 1.832-1.99 2.827z" fill="#efefef"/><path d="M52 25.75l33.5 16.384L119 25.75v10.835L85.395 52.97 52 36.585V25.75z" fill="#e2574c"/><path d="M98.064 37.422v-1.204l-12.562-6.805-12.562 6.805v1.204l-8.375-3.664v-1.675l20.52-10.835.42.21.42-.21L106.44 32.03v1.675l-8.375 3.716z" fill="#efefef"/><path d="M98.06 36.22v33.448l8.375-4.187V32.03L98.06 36.22z" fill="#dcdcdc"/><path d="M64.56 65.53l8.375 4.188V36.27l-8.375-4.24c0 0 0 33.5 0 33.5z" fill="#d1d1d1"/><path d="M1.5 12.75L24 24l22.5-11.25v24L24 48 1.5 36.75v-24z" fill="#db5449"/><path d="M1.5 15v7.012L23.925 33 46.5 21.975V15L24 26.025 1.5 15z" fill="#c54b42"/><path d="M24 48V24L3 13.5H1.5v23.25L24 48z" fill="#d05045"/><path d="M1.5 15v7.012L23.925 33l.075-.038v-6.937L1.5 15z" fill="#bb483e"/><path d="M0 11.965L24 .003l24 11.962v1.575L24 25.503 0 13.578v-1.612z" fill="#eb6258"/><path d="M37.763 3.788C36.976 2.363 35.288 1.5 33.3 1.5c-4.537 0-7.725 4.238-9.3 6.938-1.575-2.7-4.8-6.9-9.3-6.9-2.887 0-4.95 1.763-4.95 4.163 0 4.275 4.688 7.05 14.1 7.05s14.4-3.562 14.4-7.012c0-.675-.15-1.35-.487-1.95zM15.676 8.4c-1.05-.712-1.425-1.5-1.425-2.025 0-.637.6-1.125 1.463-1.125 2.025 0 3.637 2.662 4.537 4.5-2.362-.188-3.75-.825-4.575-1.35zm16.65 0c-.825.525-2.212 1.162-4.575 1.35.863-1.837 2.475-4.5 4.537-4.5.862 0 1.463.487 1.463 1.125 0 .525-.375 1.313-1.425 2.025z" fill="#efefef"/><path d="M0 12l24 11.738L48 12v7.762L23.925 31.5 0 19.763V12z" fill="#e2574c"/><path d="M33 20.363V19.5l-9-4.875-9 4.875v.862l-6-2.625v-1.2l14.7-7.763.3.15.3-.15L39 16.5v1.2l-6 2.663z" fill="#efefef"/><path d="M32.998 19.5v23.963l6-3V16.5l-6 3z" fill="#dcdcdc"/><path d="M9 40.5l6 3V19.538L9 16.5c0 0 0 24 0 24z" fill="#d1d1d1"/><path d="M7.688 48.344L33 61l25.313-12.656v27L33 88 7.688 75.344v-27z" fill="#db5449"/><path d="M7.688 50.875v7.89l25.228 12.36 25.397-12.403v-7.847L33 63.278 7.688 50.875z" fill="#c54b42"/><path d="M33 88V61L9.375 49.188H7.688v26.156L33 88z" fill="#d05045"/><path d="M7.688 50.875v7.89l25.228 12.36.084-.042v-7.805L7.688 50.875z" fill="#bb483e"/><path d="M6 47.46l27-13.458L60 47.46v1.772L33 62.7 6 49.275V47.46z" fill="#eb6258"/><path d="M48.483 38.26c-.886-1.603-2.784-2.574-5.02-2.574-5.105 0-8.69 4.767-10.462 7.805-1.772-3.037-5.4-7.762-10.463-7.762-3.248 0-5.57 1.983-5.57 4.683 0 4.81 5.273 7.93 15.862 7.93s16.2-4.008 16.2-7.89c0-.76-.17-1.52-.548-2.194zm-24.848 5.19c-1.18-.8-1.603-1.687-1.603-2.278 0-.717.675-1.266 1.645-1.266 2.278 0 4.092 2.995 5.105 5.063-2.658-.21-4.22-.928-5.147-1.52zm18.73 0c-.928.59-2.49 1.308-5.147 1.52.97-2.067 2.784-5.062 5.105-5.062.97 0 1.645.548 1.645 1.266 0 .59-.422 1.477-1.603 2.278z" fill="#efefef"/><path d="M6 47.5l27 13.205L60 47.5v8.733L32.916 69.438 6 56.233V47.5z" fill="#e2574c"/><path d="M43.126 56.908v-.97L33 50.453l-10.125 5.484v.97l-6.75-2.953v-1.35l16.537-8.733.337.17.338-.17 16.537 8.69v1.35l-6.75 2.995z" fill="#efefef"/><path d="M43.123 55.938v26.958l6.75-3.375V52.563l-6.75 3.375z" fill="#dcdcdc"/><path d="M16.124 79.562l6.75 3.375V55.98l-6.75-3.417c0 0 0 27 0 27z" fill="#d1d1d1"/></svg>
